Obsidian/status/22s/weather-showers-scattered-day.svg

<svg xmlns="http://www.w3.org/2000/svg" width="22" height="22" version="1.1">
 <defs>
  <style id="current-color-scheme" type="text/css">
   .ColorScheme-Text { color:#d3dae3; } .ColorScheme-Highlight { color:#5294e2; }
  </style>
 </defs>
 <g transform="translate(-33.000007,-705.28994)">
  <path style="fill:currentColor" class="ColorScheme-Text" d="M 11 3.0039062 C 8.92893 3.0039062 7.16529 4.2718263 6.40625 6.0664062 C 4.47842 6.3530063 3 7.9963263 3 10.003906 C 3 11.936906 4.36477 13.537176 6.1875 13.910156 C 6.95162 13.131616 7.70872 12.348706 8.5 11.597656 C 9.07304 12.135666 9.63306 12.696886 10.1875 13.253906 C 10.43042 13.184906 10.57002 12.407736 10.90625 12.160156 C 11.76052 11.292076 12.61549 10.435326 13.5 9.5976562 C 14.16629 10.222146 14.79148 10.858716 15.4375 11.503906 C 16.03544 12.075336 16.66508 12.707556 16.875 13.535156 C 16.891 13.586256 16.89305 13.639806 16.90625 13.691406 C 18.1415 13.150916 19 11.938456 19 10.503906 C 19 8.7073662 17.64921 7.2352063 15.90625 7.0351562 C 15.45168 4.7417662 13.42687 3.0039062 11 3.0039062 z M 13.5 11 L 13.15625 11.34375 L 11.75 12.75 C 11.29685 13.20315 11 13.8126 11 14.5 C 11 15.87479 12.12521 17 13.5 17 C 14.87479 17 16 15.87479 16 14.5 C 16 13.8126 15.70315 13.20315 15.25 12.75 L 13.84375 11.34375 L 13.5 11 z M 8.5 13 L 8.15625 13.34375 L 6.75 14.75 C 6.29685 15.20315 6 15.8126 6 16.5 C 6 17.87479 7.12521 19 8.5 19 C 9.87479 19 11 17.87479 11 16.5 C 11 15.8126 10.70315 15.20315 10.25 14.75 L 8.84375 13.34375 L 8.5 13 z" transform="translate(33.000007,705.28994)"/>
 </g>
</svg>

<svg height="22" width="22" xmlns="http://www.w3.org/2000/svg"><path d="m11 3.0039062c-2.07107 0-3.83471 1.2679201-4.59375 3.0625-1.92783.2866001-3.40625 1.9299201-3.40625 3.9374998 0 1.933 1.36477 3.53327 3.1875 3.90625.76412-.77854 1.52122-1.56145 2.3125-2.3125.57304.53801 1.13306 1.09923 1.6875 1.65625.24292-.069.38252-.84617.71875-1.09375.85427-.86808 1.70924-1.72483 2.59375-2.5624998.66629.6244898 1.29148 1.2610598 1.9375 1.9062498.59794.57143 1.22758 1.20365 1.4375 2.03125.016.0511.01805.10465.03125.15625 1.23525-.54049 2.09375-1.75295 2.09375-3.1875 0-1.7965398-1.35079-3.2686997-3.09375-3.4687498-.45457-2.29339-2.47938-4.03125-4.90625-4.03125zm2.5 7.9960938-.34375.34375-1.40625 1.40625c-.45315.45315-.75 1.0626-.75 1.75 0 1.37479 1.12521 2.5 2.5 2.5s2.5-1.12521 2.5-2.5c0-.6874-.29685-1.29685-.75-1.75l-1.40625-1.40625zm-5 2-.34375.34375-1.40625 1.40625c-.45315.45315-.75 1.0626-.75 1.75 0 1.37479 1.12521 2.5 2.5 2.5s2.5-1.12521 2.5-2.5c0-.6874-.29685-1.29685-.75-1.75l-1.40625-1.40625z" fill="#d3dae3"/></svg>
